build/category/ReceiptSolid.svg

<svg xmlns="http://www.w3.org/2000/svg" fill="none" viewBox="0 0 24 24" focusable="false"><path d="M0 0H24V24H0z"/><path fill="#74767B" fill-rule="evenodd" d="M7.45607 20.7453C6.39034 21.4187 5 20.6536 5 19.3936L5.00893 5.59989C5.00893 4.16462 6.1734 3.0011 7.60986 3.0011L16.3991 3.0011C17.8355 3.0011 19 4.16462 19 5.59989L18.9911 19.3991C18.9911 20.6529 17.6129 21.4191 16.5467 20.7581L14.8715 19.7196C14.6634 19.5906 14.3979 19.601 14.2005 19.7458L12.9123 20.6909C12.3486 21.1045 11.5814 21.1045 11.0177 20.6909L9.73916 19.7529C9.54025 19.607 9.27229 19.5976 9.06373 19.7294L7.45607 20.7453ZM8.64248 7.00073C8.28349 7.00073 7.99248 7.29175 7.99248 7.65073C7.99248 8.00972 8.28349 8.30073 8.64248 8.30073L15.3425 8.30073C15.7015 8.30073 15.9925 8.00972 15.9925 7.65073C15.9925 7.29175 15.7015 7.00073 15.3425 7.00073L8.64248 7.00073ZM7.99248 10.6507C7.99248 10.2917 8.28349 10.0007 8.64248 10.0007L15.3425 10.0007C15.7015 10.0007 15.9925 10.2917 15.9925 10.6507C15.9925 11.0097 15.7015 11.3007 15.3425 11.3007L8.64248 11.3007C8.28349 11.3007 7.99248 11.0097 7.99248 10.6507ZM7.99248 13.6507C7.99248 13.2917 8.28349 13.0007 8.64248 13.0007L11.8425 13.0007C12.2015 13.0007 12.4925 13.2917 12.4925 13.6507C12.4925 14.0097 12.2015 14.3007 11.8425 14.3007L8.64248 14.3007C8.28349 14.3007 7.99248 14.0097 7.99248 13.6507Z"/></svg>

<svg xmlns="http://www.w3.org/2000/svg" fill="none" viewBox="0 0 24 24" focusable="false"><path fill="#74767B" fill-rule="evenodd" d="M7.45 20.74C6.39 21.41 5 20.65 5 19.39V5.59A2.6 2.6 0 0 1 7.6 3h8.79C17.83 3 19 4.16 19 5.59l-.01 13.8c0 1.26-1.38 2.02-2.45 1.36l-1.67-1.04a.62.62 0 0 0-.67.03l-1.29.95c-.57.41-1.33.41-1.9 0l-1.28-.94a.59.59 0 0 0-.67-.03zM8.64 7c-.36 0-.65.29-.65.65 0 .35.29.65.65.65h6.7c.36 0 .65-.3.65-.65 0-.36-.29-.65-.65-.65zm-.65 3.65c0-.36.29-.65.65-.65h6.7c.36 0 .65.29.65.65 0 .35-.29.65-.65.65h-6.7c-.36 0-.65-.3-.65-.65m0 3c0-.36.29-.65.65-.65h3.2c.36 0 .65.29.65.65 0 .35-.29.65-.65.65h-3.2c-.36 0-.65-.3-.65-.65"/></svg>
